X:14
T:Whiddon's Hornpipe
R:reel
D:John Campbell, Cape Breton Violin Music (1975-2006)
Z:Paul Stewart Cranford (P.S.C.), <http://www.cranfordpub.com>
L:1/8
M:C|
Q:333
K:Bb
F2|B2 Bc BFDF|Bcde fgab|AFcF dFcF|dcBd cBAc|
B2 Bc BFDF|Bcde fgab|f=efg f_ecA|Bbfd B2:|
|:FD|B,DFB dBFD|EGcd ecAc|Bbab fdBd|(3cdc (3BAG (3FGF (3EDC|
B,DFB dBFD|EGcd ecAc|Bbab gecA|B2 d2 B2:|
